!! J.S. Bach "Allegro assai" from Sonata No. 3, for solo violin, BWV 1005.
!! From 'Neue Ausgabe Saemtlicher Werke' Serie VI: Kammermusikwerke,
!! Band 1 ('Werke fuer Violine') Baerenreiter Kassel (Basel) 1958; pp.51-53
!! This file has been error-checked using the double-entry method.
!! NOTE:  The repeats at bar 42 and at the end of the work have been
!!        expanded in this encoding.
**kern
*M3/4
=1
{16cc
16dd
16ee
16ff
8gg}
8cc
16dd
16cc
16b
16a
=2
{16g
16a
16b
16cc
16dd
16ee
16ff}
16aa
16gg
16ff
16ee
16dd
=3
{16cc
16dd
16ee
16ff
8gg}
8cc
16dd
16cc
16b
16a
=4
{16g
16a
16b}
16dd
16cc
16b
16a
16g
16f
16e
16f
16d
=5
{16e
16cc
16b
16cc
16dd
16cc
16b
16cc}
{16gg
16cc
16b
16cc}
=6
16e
16cc
16gg
16cc
16aa
16cc
16bb-
16cc
16aa
16cc
16gg
16cc
=7
{16f
16cc
16b
16cc
16dd
16cc
16b
16cc}
{16aa
16cc
16b
16cc}
=8
16f
16cc
16aa
16cc
16f
16cc
16e
16cc
16f
16cc
16d
16cc
=9
{16e
16cc
16b
16cc
16dd
16cc
16b
16cc}
{16gg
16cc
16b
16cc}
=10
16e
16cc
16gg
16cc
16aa
16cc
16bb-
16cc
16aa
16cc
16gg
16cc
=11
{16f
16cc
16b
16cc
16dd
16cc
16b
16cc}
{16aa
16cc
16b
16cc}
=12
16f
16cc
16aa
16cc
16f
16cc
16e
16cc
16f
16cc
16d
16cc
=13
{16e
16cc
16b
16cc}
{16gg
16cc
16b
16cc}
{16a
16cc
16b
16cc}
=14
{16d
16cc
16b
16cc}
{16ff
16cc
16b
16cc}
{16g
16cc
16b
16cc}
=15
{16c
16d
16e
16f
16g}
16cc
16dd
16ee
16ff
16ee
16dd
16cc
=16
{16dd
16cc
16b
16a
8g}
8dd
16f
16e
16f
16d
=17
{16e
16g
16a
16b
8cc}
8gg
16b-
16a
16b-
16g
=18
{16a
16bn
16cc#}
16bb-
16gg
16ff
16ee
16dd
16cc#
16b
16a
16g
=19
{16f
16e
16d
16e
8f}
8dd
16a
16g
16f
16e
=20
{16d
16c
16B
16c
16d}
16a
16f
16e
16d
16c
16B
16A
=21
{16G
16f
16e
16d}
{16G
16e
16d
16c}
{16G
16g
16f
16e}
=22
{16d
16B
16A
16G}
{16f
16B
16A
16G}
{16d
16c
16B
16A}
=23
{16G
16f
16e
16d}
{16G
16e
16d
16c}
{16G
16g
16f
16e}
=24
{16d
16B
16A
16G}
{16g
16B
16A
16G}
{16d
16c
16B
16A}
=25
{16G
16f
16e
16f}
{16b
16f
16e
16f}
{16dd
16f
16e
16f}
=26
16G
16e
16dd
16e
16cc
16e
16b
16e
16cc
16e
16G
16e
=27
{16A
16g
16f#
16g}
{16cc#
16g
16f#
16g}
{16ee
16g
16f#
16g}
=28
16A
16f#
16ee
16f#
16dd
16f#
16cc#
16f#
16dd
16f#
16A
16f#
=29
{16d
16ccn
16b
16cc
16dd
16cc
16b
16cc}
{16aa
16cc
16b
16cc}
=30
16d
16cc
16aa
16cc
16b
16aa
16cc
16aa
16b
16aa
16a
16aa
=31
{16d
16b
16a
16b
16cc
16b
16a
16b}
{16aa
16b
16a
16b}
=32
16d
16b
16gg
16b
16a
16gg
16b
16gg
16cc#
16gg
16dd
16gg
=33
{16d
16cc#
16b
16cc#
16dd
16cc#
16b
16cc#}
{16gg
16cc#
16b
16cc#}
=34
16d
16cc#
16gg
16cc#
16ee
16gg
16cc#
16gg
16a
16gg
16cc#
16gg
=35
16d
16dd
16gg
16ee
16ff#
16dd
16gg
16ee
16ff#
16dd
16gg
16ee
=36
16ff#
16ee
16dd
16ee
16ff#
16gg
16aa
16bb
16ccc
16bb
16ccc
16aa
=37
{16dd
16ccc
16bb-
16aa}
{16dd
16bb-
16aa
16gg}
{16dd
16ddd
16ccc
16bb-}
=38
{16aa
16ff#
16ee
16dd}
{16ccc
16ff#
16ee
16dd}
{16aa
16gg
16ff#
16ee}
=39
{16dd
16cc
16b-
16a}
{16dd
16b-
16a
16g}
{16ee-
16dd
16cc
16b-}
=40
{16a
16f#
16e
16d}
{16cc
16f#
16e
16d}
16ff#
16dd
16een
16ff#
=41
{16gg
16aa
16bb-
16ccc
8ddd}
8gg
16bb-
16aa
16gg
16ff#
=42
{16gg
16dd
16cc
16bn}
{16dd
16cc
16b
16a}
4g
=43
{16cc
16dd
16ee
16ff
8gg}
8cc
16dd
16cc
16b
16a
=44
{16g
16a
16b
16cc
16dd
16ee
16ff}
16aa
16gg
16ff
16ee
16dd
=45
{16cc
16dd
16ee
16ff
8gg}
8cc
16dd
16cc
16b
16a
=46
{16g
16a
16b}
16dd
16cc
16b
16a
16g
16f
16e
16f
16d
=47
{16e
16cc
16b
16cc
16dd
16cc
16b
16cc}
{16gg
16cc
16b
16cc}
=48
16e
16cc
16gg
16cc
16aa
16cc
16bb-
16cc
16aa
16cc
16gg
16cc
=49
{16f
16cc
16b
16cc
16dd
16cc
16b
16cc}
{16aa
16cc
16b
16cc}
=50
16f
16cc
16aa
16cc
16f
16cc
16e
16cc
16f
16cc
16d
16cc
=51
{16e
16cc
16b
16cc
16dd
16cc
16b
16cc}
{16gg
16cc
16b
16cc}
=52
16e
16cc
16gg
16cc
16aa
16cc
16bb-
16cc
16aa
16cc
16gg
16cc
=53
{16f
16cc
16b
16cc
16dd
16cc
16b
16cc}
{16aa
16cc
16b
16cc}
=54
16f
16cc
16aa
16cc
16f
16cc
16e
16cc
16f
16cc
16d
16cc
=55
{16e
16cc
16b
16cc}
{16gg
16cc
16b
16cc}
{16a
16cc
16b
16cc}
=56
{16d
16cc
16b
16cc}
{16ff
16cc
16b
16cc}
{16g
16cc
16b
16cc}
=57
{16c
16d
16e
16f
16g}
16cc
16dd
16ee
16ff
16ee
16dd
16cc
=58
{16dd
16cc
16b
16a
8g}
8dd
16f
16e
16f
16d
=59
{16e
16g
16a
16b
8cc}
8gg
16b-
16a
16b-
16g
=60
{16a
16bn
16cc#}
16bb-
16gg
16ff
16ee
16dd
16cc#
16b
16a
16g
=61
{16f
16e
16d
16e
8f}
8dd
16a
16g
16f
16e
=62
{16d
16c
16B
16c
16d}
16a
16f
16e
16d
16c
16B
16A
=63
{16G
16f
16e
16d}
{16G
16e
16d
16c}
{16G
16g
16f
16e}
=64
{16d
16B
16A
16G}
{16f
16B
16A
16G}
{16d
16c
16B
16A}
=65
{16G
16f
16e
16d}
{16G
16e
16d
16c}
{16G
16g
16f
16e}
=66
{16d
16B
16A
16G}
{16g
16B
16A
16G}
{16d
16c
16B
16A}
=67
{16G
16f
16e
16f}
{16b
16f
16e
16f}
{16dd
16f
16e
16f}
=68
16G
16e
16dd
16e
16cc
16e
16b
16e
16cc
16e
16G
16e
=69
{16A
16g
16f#
16g}
{16cc#
16g
16f#
16g}
{16ee
16g
16f#
16g}
=70
16A
16f#
16ee
16f#
16dd
16f#
16cc#
16f#
16dd
16f#
16A
16f#
=71
{16d
16ccn
16b
16cc
16dd
16cc
16b
16cc}
{16aa
16cc
16b
16cc}
=72
16d
16cc
16aa
16cc
16b
16aa
16cc
16aa
16b
16aa
16a
16aa
=73
{16d
16b
16a
16b
16cc
16b
16a
16b}
{16aa
16b
16a
16b}
=74
16d
16b
16gg
16b
16a
16gg
16b
16gg
16cc#
16gg
16dd
16gg
=75
{16d
16cc#
16b
16cc#
16dd
16cc#
16b
16cc#}
{16gg
16cc#
16b
16cc#}
=76
16d
16cc#
16gg
16cc#
16ee
16gg
16cc#
16gg
16a
16gg
16cc#
16gg
=77
16d
16dd
16gg
16ee
16ff#
16dd
16gg
16ee
16ff#
16dd
16gg
16ee
=78
16ff#
16ee
16dd
16ee
16ff#
16gg
16aa
16bb
16ccc
16bb
16ccc
16aa
=79
{16dd
16ccc
16bb-
16aa}
{16dd
16bb-
16aa
16gg}
{16dd
16ddd
16ccc
16bb-}
=80
{16aa
16ff#
16ee
16dd}
{16ccc
16ff#
16ee
16dd}
{16aa
16gg
16ff#
16ee}
=81
{16dd
16cc
16b-
16a}
{16dd
16b-
16a
16g}
{16ee-
16dd
16cc
16b-}
=82
{16a
16f#
16e
16d}
{16cc
16f#
16e
16d}
16ff#
16dd
16een
16ff#
=83
{16gg
16aa
16bb-
16ccc
8ddd}
8gg
16bb-
16aa
16gg
16ff#
=84
{16gg
16dd
16cc
16bn}
{16dd
16cc
16b
16a}
4g
=85
{16g
16a
16b
16cc
8dd}
8g
16a
16g
16f#
16e
=86
{16d
16e
16f#
16g
16a
16b
16cc}
16ee
16dd
16cc
16b
16a
=87
{16g
16a
16b
16cc
8dd}
8g
16a
16g
16f#
16e
=88
{16d
16e
16f#}
16a
16g
16f#
16e
16d
16c
16B
16c
16A
=89
{16B
16g
16f#
16g
16a
16g
16f#
16g}
{16dd
16g
16f#
16g}
=90
16B
16g
16dd
16g
16ee
16g
16ff
16g
16ee
16g
16dd
16g
=91
{16c
16g
16f#
16g
16a
16g
16f#
16g}
{16ee
16g
16f#
16g}
=92
16c
16g
16ee
16g
16c
16g
16B
16g
16c
16g
16A
16g
=93
{16B
16g
16f#
16g
16a
16g
16f#
16g}
{16dd
16g
16f#
16g}
=94
16B
16g
16dd
16g
16ee
16g
16ff
16g
16ee
16g
16dd
16g
=95
{16c
16g
16f#
16g
16a
16g
16f#
16g}
{16ee
16g
16f#
16g}
=96
16c
16g
16ee
16g
16c
16g
16d
16g
16e
16g
16d
16g
=97
{16c#
16a
16g#
16a
16b
16a
16g#
16a}
{16ee
16a
16g#
16a}
=98
16c#
16a
16ee
16a
16ff
16a
16gg
16a
16ff
16a
16ee
16a
=99
{16d
16a
16g#
16a
16b
16a
16g#
16a}
{16ff
16a
16g
16a}
=100
16d
16a
16ff
16a
16d
16a
16cc#
16a
16d
16a
16B
16a
=101
{16c#
16a
16g#
16a
16b
16a
16g#
16a}
{16ee
16a
16g#
16a}
=102
16c#
16a
16ee
16a
16ff
16a
16gg
16a
16ff
16a
16ee
16a
=103
{16d
16a
16g#
16a
16b
16a
16g#
16a}
{16ff
16a
16g#
16a}
=104
16d
16a
16ff
16a
16d
16a
16e
16a
16f
16a
16d
16a
=105
{16g
16a
16b-
16cc
8dd}
8bb-
16f
16e
16f
16d
=106
16e
{16g
16a
16bn
16cc
16dd
16ee
16ff}
16gg
16aa
16bb-
16gg
=107
{16aa
16gg
16ff
16ee
8ff}
8aa
16e
16d
16e
16c
=108
16d
{16f
16g
16a
16b-
16cc
16dd
16ee}
16ff
16gg
16aa
16ff
=109
{16gg
16ff
16ee
16dd
16cc#
16dd
16ee}
16a
16g
16f
16g
16e
=110
{16a
16g
16f
16e
16d
16e
16f}
16c
16B-
16A
16B-
16G
=111
{16A
16g
16f
16e}
{16A
16ff
16e
16d}
{16A
16a
16g
16f}
=112
{16e
16c#
16B
16A}
{16g
16c#
16B
16A}
{16e
16d
16c#
16B}
=113
{16A
16g
16f
16e}
{16A
16f
16e
16d}
{16A
16a
16g
16f}
=114
{16e
16c#
16B
16A}
{16a
16c#
16B
16A}
{16e
16d
16c#
16B}
=115
{16A
16g
16f#
16g}
{16cc#
16g
16f#
16g}
{16ee
16g
16f#
16g}
=116
16A
16fn
16ee
16f
16dd
16f
16cc#
16f
16dd
16f
16A
16f
=117
{16G#
16f
16e
16f
16b
16f
16e
16f}
{16dd
16f
16e
16f}
=118
16G#
16f
16dd
16f
16G#
16e
16d
16e
16c
16e
16B
16e
=119
16A
16e
16f#
16g#
16a
16b
16cc
16a
{16cc
16b
16a
16g#}
=120
{16a
16cc
16b
16a}
{16ee
16dd
16cc
16b
16a
16gn
16fn
16e}
=121
16f
16a
16b
16cc#
16dd
16ee
16ff
16dd
{16ff
16ee
16dd
16ccn}
=122
{16gg
16dd
16cc
16b}
{16dd
16cc
16b
16a
16g
16f
16e
16d}
=123
16e
16g
16a
16b
16cc
16dd
16ee
16ff
{16gg
16ee
16dd
16cc}
=124
{16aa
16cc
16b-
16a}
{16cc
16b-
16a
16g
16f
16e
16d
16c}
=125
16d
16f
16g
16a
16bn
16cc
16dd
16ee
{16ff
16ee
16dd
16cc}
=126
{16bb
16ff
16ee
16dd
16cc
16b
16a
16g}
16f
16e
16f
16d
=127
16e
16g
16d
16g
16e
16g
16cc
16g
16ee
16g
16cc
16g
=128
16b
16dd
16a
16dd
16b
16dd
16gg
16dd
16bb
16dd
16gg
16dd
=129
16ee
16gg
16dd
16gg
16cc
16gg
16b
16gg
16a
16gg
16aa
16gg
=130
16ff#
16ee
16dd
16ee
16ff#
16gg
16aa
16bb
16ccc
16ddd
16eee
16fff#
=131
16ggg
16ddd
16bb
16ddd
16gg
16ddd
16aa
16ddd
16bb
16ddd
16gg
16ddd
=132
16fff
16ddd
16bb
16ddd
16gg
16ddd
16aa
16ddd
16bb
16ddd
16gg
16ddd
=133
16eee
16cc
16b
16ccc
16gg
16ccc
16eee
16ccc
16ggg
16ccc
16eee
16ccc
=134
16ddd
16bb
16aa
16bb
16gg
16bb
16ddd
16bb
16ggg
16bb
16ddd
16bb
=135
16a
16gg
16ccc
16bb
16aa
16ccc
16gg
16ccc
16ff#
16ccc
16ee
16ccc
=136
16d
16cc
16aa
16gg
16ff#
16aa
16ee
16aa
16dd
16aa
16cc
16aa
=137
16b
16dd
16gg
16ff#
16gg
16dd
16ee
16cc
16dd
16b
16cc
16a
=138
16b
16g
16cc
16a
16b
16g
16cc
16a
16b
16g
16dd
16b
=139
{16g
16ff
16ee-
16dd}
{16g
16ee-
16dd
16cc}
{16g
16gg
16ff
16ee-}
=140
{16dd
16b
16a
16g}
{16ff
16b
16a
16g}
{16dd
16cc
16b
16a}
=141
{16g
16f
16e-
16d}
{16g
16e-
16d
16c}
{16a-
16g
16f
16e-}
=142
{16d
16B
16A
16G}
{16f
16B
16A
16G}
16b
16g
16an
16b
=143
{16cc
16dd
16een
16ff
8gg}
8cc
16ee
16dd
16cc
16b
=144
{16cc
16g
16f
16e}
{16g
16f
16e
16d}
4c
=145
{16g
16a
16b
16cc
8dd}
8g
16a
16g
16f#
16e
=146
{16d
16e
16f#
16g
16a
16b
16cc}
16ee
16dd
16cc
16b
16a
=147
{16g
16a
16b
16cc
8dd}
8g
16a
16g
16f#
16e
=148
{16d
16e
16f#}
16a
16g
16f#
16e
16d
16c
16B
16c
16A
=149
{16B
16g
16f#
16g
16a
16g
16f#
16g}
{16dd
16g
16f#
16g}
=150
16B
16g
16dd
16g
16ee
16g
16ff
16g
16ee
16g
16dd
16g
=151
{16c
16g
16f#
16g
16a
16g
16f#
16g}
{16ee
16g
16f#
16g}
=152
16c
16g
16ee
16g
16c
16g
16B
16g
16c
16g
16A
16g
=153
{16B
16g
16f#
16g
16a
16g
16f#
16g}
{16dd
16g
16f#
16g}
=154
16B
16g
16dd
16g
16ee
16g
16ff
16g
16ee
16g
16dd
16g
=155
{16c
16g
16f#
16g
16a
16g
16f#
16g}
{16ee
16g
16f#
16g}
=156
16c
16g
16ee
16g
16c
16g
16d
16g
16e
16g
16d
16g
=157
{16c#
16a
16g#
16a
16b
16a
16g#
16a}
{16ee
16a
16g#
16a}
=158
16c#
16a
16ee
16a
16ff
16a
16gg
16a
16ff
16a
16ee
16a
=159
{16d
16a
16g#
16a
16b
16a
16g#
16a}
{16ff
16a
16g
16a}
=160
16d
16a
16ff
16a
16d
16a
16cc#
16a
16d
16a
16B
16a
=161
{16c#
16a
16g#
16a
16b
16a
16g#
16a}
{16ee
16a
16g#
16a}
=162
16c#
16a
16ee
16a
16ff
16a
16gg
16a
16ff
16a
16ee
16a
=163
{16d
16a
16g#
16a
16b
16a
16g#
16a}
{16ff
16a
16g#
16a}
=164
16d
16a
16ff
16a
16d
16a
16e
16a
16f
16a
16d
16a
=165
{16g
16a
16b-
16cc
8dd}
8bb-
16f
16e
16f
16d
=166
16e
{16g
16a
16bn
16cc
16dd
16ee
16ff}
16gg
16aa
16bb-
16gg
=167
{16aa
16gg
16ff
16ee
8ff}
8aa
16e
16d
16e
16c
=168
16d
{16f
16g
16a
16b-
16cc
16dd
16ee}
16ff
16gg
16aa
16ff
=169
{16gg
16ff
16ee
16dd
16cc#
16dd
16ee}
16a
16g
16f
16g
16e
=170
{16a
16g
16f
16e
16d
16e
16f}
16c
16B-
16A
16B-
16G
=171
{16A
16g
16f
16e}
{16A
16ff
16e
16d}
{16A
16a
16g
16f}
=172
{16e
16c#
16B
16A}
{16g
16c#
16B
16A}
{16e
16d
16c#
16B}
=173
{16A
16g
16f
16e}
{16A
16f
16e
16d}
{16A
16a
16g
16f}
=174
{16e
16c#
16B
16A}
{16a
16c#
16B
16A}
{16e
16d
16c#
16B}
=175
{16A
16g
16f#
16g}
{16cc#
16g
16f#
16g}
{16ee
16g
16f#
16g}
=176
16A
16fn
16ee
16f
16dd
16f
16cc#
16f
16dd
16f
16A
16f
=177
{16G#
16f
16e
16f
16b
16f
16e
16f}
{16dd
16f
16e
16f}
=178
16G#
16f
16dd
16f
16G#
16e
16d
16e
16c
16e
16B
16e
=179
16A
16e
16f#
16g#
16a
16b
16cc
16a
{16cc
16b
16a
16g#}
=180
{16a
16cc
16b
16a}
{16ee
16dd
16cc
16b
16a
16gn
16fn
16e}
=181
16f
16a
16b
16cc#
16dd
16ee
16ff
16dd
{16ff
16ee
16dd
16ccn}
=182
{16gg
16dd
16cc
16b}
{16dd
16cc
16b
16a
16g
16f
16e
16d}
=183
16e
16g
16a
16b
16cc
16dd
16ee
16ff
{16gg
16ee
16dd
16cc}
=184
{16aa
16cc
16b-
16a}
{16cc
16b-
16a
16g
16f
16e
16d
16c}
=185
16d
16f
16g
16a
16bn
16cc
16dd
16ee
{16ff
16ee
16dd
16cc}
=186
{16bb
16ff
16ee
16dd
16cc
16b
16a
16g}
16f
16e
16f
16d
=187
16e
16g
16d
16g
16e
16g
16cc
16g
16ee
16g
16cc
16g
=188
16b
16dd
16a
16dd
16b
16dd
16gg
16dd
16bb
16dd
16gg
16dd
=189
16ee
16gg
16dd
16gg
16cc
16gg
16b
16gg
16a
16gg
16aa
16gg
=190
16ff#
16ee
16dd
16ee
16ff#
16gg
16aa
16bb
16ccc
16ddd
16eee
16fff#
=191
16ggg
16ddd
16bb
16ddd
16gg
16ddd
16aa
16ddd
16bb
16ddd
16gg
16ddd
=192
16fff
16ddd
16bb
16ddd
16gg
16ddd
16aa
16ddd
16bb
16ddd
16gg
16ddd
=193
16eee
16cc
16b
16ccc
16gg
16ccc
16eee
16ccc
16ggg
16ccc
16eee
16ccc
=194
16ddd
16bb
16aa
16bb
16gg
16bb
16ddd
16bb
16ggg
16bb
16ddd
16bb
=195
16a
16gg
16ccc
16bb
16aa
16ccc
16gg
16ccc
16ff#
16ccc
16ee
16ccc
=196
16d
16cc
16aa
16gg
16ff#
16aa
16ee
16aa
16dd
16aa
16cc
16aa
=197
16b
16dd
16gg
16ff#
16gg
16dd
16ee
16cc
16dd
16b
16cc
16a
=198
16b
16g
16cc
16a
16b
16g
16cc
16a
16b
16g
16dd
16b
=199
{16g
16ff
16ee-
16dd}
{16g
16ee-
16dd
16cc}
{16g
16gg
16ff
16ee-}
=200
{16dd
16b
16a
16g}
{16ff
16b
16a
16g}
{16dd
16cc
16b
16a}
=201
{16g
16f
16e-
16d}
{16g
16e-
16d
16c}
{16a-
16g
16f
16e-}
=202
{16d
16B
16A
16G}
{16f
16B
16A
16G}
16b
16g
16an
16b
=203
{16cc
16dd
16een
16ff
8gg}
8cc
16ee
16dd
16cc
16b
=204
{16cc
16g
16f
16e}
{16g
16f
16e
16d}
4c
==
*-
